public/home/img/icon-iphone.svg

<svg viewBox="0 0 18 36" xmlns="http://www.w3.org/2000/svg"><path d="m14.0520107 7.69230769c-1.3728394 0-2.4857456 1.25242984-2.4857456 2.80340081v29.008583c0 1.5482755 1.1116752 2.8034008 2.4857456 2.8034008h12.3779063c1.3728394 0 2.4857457-1.2524298 2.4857457-2.8034008v-29.008583c0-1.54827551-1.1116752-2.80340081-2.4857457-2.80340081zm-.8592396 4.53972261v25.5359394h14.0963855v-25.5359394zm7.0481928 28.9407314c.5988629 0 1.0843373-.5081258 1.0843373-1.1349307s-.4854744-1.1349306-1.0843373-1.1349306c-.598863 0-1.0843374.5081257-1.0843374 1.1349306s.4854744 1.1349307 1.0843374 1.1349307zm-2.1686747-31.21059272c0 .31340242.1863704.56746532.4317387.56746532h3.473872c.2384427 0 .4317387-.2632285.4317387-.56746532 0-.31340244-.1863705-.56746532-.4317387-.56746532h-3.473872c-.2384427 0-.4317387.26322854-.4317387.56746532z" fill="#a9b2bb" fill-rule="evenodd" transform="translate(-11 -7)"/></svg>

<?xml version="1.0" encoding="UTF-8" standalone="no"?>
<svg  viewBox="0 0 18 36" version="1.1" xmlns="http://www.w3.org/2000/svg" xmlns:xlink="http://www.w3.org/1999/xlink" xmlns:sketch="http://www.bohemiancoding.com/sketch/ns">
    <!-- Generator: Sketch 3.2.2 (9983) - http://www.bohemiancoding.com/sketch -->
    <title>iPhone</title>
    <desc>Created with Sketch.</desc>
    <defs></defs>
    <g id="Landing" stroke="none" stroke-width="1" fill="#A9B2BB" fill-rule="evenodd" sketch:type="MSPage">
        <g id="Landing-Home-2" sketch:type="MSArtboardGroup" transform="translate(-935.000000, -725.000000)" fill="#A9B2BB">
            <g id="Apple-App-Store---Small-+-Google-Play---Small" sketch:type="MSLayerGroup" transform="translate(924.000000, 718.000000)">
                <g id="Apple-App-Store---Small" sketch:type="MSShapeGroup">
                    <path d="M14.0520107,7.69230769 C12.6791713,7.69230769 11.5662651,8.94473753 11.5662651,10.4957085 L11.5662651,39.5042915 C11.5662651,41.052567 12.6779403,42.3076923 14.0520107,42.3076923 L26.429917,42.3076923 C27.8027564,42.3076923 28.9156627,41.0552625 28.9156627,39.5042915 L28.9156627,10.4957085 C28.9156627,8.94743299 27.8039875,7.69230769 26.429917,7.69230769 L14.0520107,7.69230769 L14.0520107,7.69230769 Z M13.1927711,12.2320303 L13.1927711,37.7679697 L27.2891566,37.7679697 L27.2891566,12.2320303 L13.1927711,12.2320303 L13.1927711,12.2320303 Z M20.2409639,41.1727617 C20.8398268,41.1727617 21.3253012,40.6646359 21.3253012,40.037831 C21.3253012,39.4110261 20.8398268,38.9029004 20.2409639,38.9029004 C19.6421009,38.9029004 19.1566265,39.4110261 19.1566265,40.037831 C19.1566265,40.6646359 19.6421009,41.1727617 20.2409639,41.1727617 L20.2409639,41.1727617 Z M18.0722892,9.96216898 C18.0722892,10.2755714 18.2586596,10.5296343 18.5040279,10.5296343 L21.9778999,10.5296343 C22.2163426,10.5296343 22.4096386,10.2664058 22.4096386,9.96216898 C22.4096386,9.64876654 22.2232681,9.39470366 21.9778999,9.39470366 L18.5040279,9.39470366 C18.2655852,9.39470366 18.0722892,9.6579322 18.0722892,9.96216898 Z" id="iPhone"></path>
                </g>
            </g>
        </g>
    </g>
</svg>
